X:146
T:4 Steirer (3.)
C:traditionell
R:Steirer
A:Bad Ischl, Salzkammergut
B:"Pfeifermusik aus Bad Ischl", Lois Blamberger, 3 .Auflage, Bad Ischl 1990
S:im buch mit der Angabe: aus der Sammlung vom Blamberger Lois
N:im buch in D, nr. 2/3
Z:abc transcription Simon Wascher
M:3/4
L:1/8
K:D
V:1
AA |\
(Aa fA df) | (Aa gA c2) | (Aa gA ce) | (Aa fA d2) |\
(Aa fA df) | (Aa gA c2) | (Aa gA ce) | d2 z2 :|
V:2
FF |\
(Ff dF Ad) | (Ee cE A2) | (Ee cE AG) | (Ff dF A2) |\
(Ff dF AA) | (Ee cE A2) | (Ee cE AG) | F2 z2 :|
